X:22
T:Rome
S:John Moore's Book 3
Z:Transcribed by Steve Mansfield 05/2021
%%VWML: Moore1-4495-p20-0
F:https://www.vwml.org/record/Moore3/4495/p20
M:C|
L:1/4
K:G
V:1
B2BF | G2c2 | B2(AG) | (G2HF)A | 
(Bd)(ec) | B2A2 | HG2 || 
d2 | d2d2 | d2(^c>B) | 
V:2
d2dd | d2g2 | g2e2 | Hd3 f | 
g2(ge) | d3c | HB2 ||
g2 | (fg)(af) | g2g2 | 
V:3
"Air"
G2GA | B2c2 | d2(cB) | (B2 HA)d | 
(dB)(cA) | G2F2 | HG2 ||
B2 | A2A2 | B2(ed) | 
V:4 clef=bass middle=d
G2Bd | g2e2 | B2c^c | Hd3d | 
g2c2 | d2d2 | HG2 ||
g2 | (de)(gd) | g2e2 | 
